X:1
T:I Dreamed a Dream of Boyhood's Days
T:I Dreamed a Dream of Boyhood's Days
T:Anonymous
T:I dreamed a dream of early youth A wilderness of sweetest dreams, I scarce know what of love and truth Bathing my soul in heavenly beams. Dream of my youth, sweet dream, oh stay; Let me thus love my life away. Dream of my youth, sweet dream, oh stay, Alas, alas it fades away. I dreamed a dream of manhood's prime Mixed dream of triumph akd of strife But She at morn and evening chime Was there to bless, sooth, cheer my life. Dream of my prime, stay, stay, oh stay Thy features court the opening day. Dream of my prime, stay, stay, oh stay Alas, thou too, must fade away. 
T:by IMSLP - Public Domain
T:by IMSLP - Public Domain
T:by IMSLP - Public Domain
C:Anonymous
Z:by IMSLP - Public Domain
%%score 1 { 2 | 3 }
L:1/8
M:2/4
K:Eb
V:1 treble nm="Voce"
V:2 treble nm="Piano"
V:3 bass 
V:1
 z | z4 | z4 | z4 | z2 z B, | G3 G | G F E F | E2 z2 | z4 | z2 z B | B3 B | c B A F | E2 z2 | z4 | %14
w: ||||I|dreamed a|dream of boy hood's|days,||Of|bright and|wild and care\- less|glee;||
 z2 z G | A3 A | B3 c | B3 G | e2 z2 | e2 c =A | B B c d | e2 z2 | z4 | z4 |] %24
w: A\-|round my|path ten|thou\- sand|rays|Spark\- ling and|dan\- cing seem to|be.|||
[K:E][M:3/4] E2 E2 E2 | (E2 D2) C2 | B,4 B,2 | B,4 E2 | G4 E2 | B,4 E2 | C4 D2 | E6 | B2 B2 B2 | %33
w: Dream of my|boy- * hood,|stay, oh|stay, Thus|let me|sport my|life a\-|way;|Dream of my|
 (c3 B) (A F) | (c3 B) (A F) | G z z2 z e | e2 z2 z B | B2 z2 z B | (A2 C2) D2 | E6 | z6 | z6 | %42
w: boy- * hood, _|stay, * oh _|stay, a\-|las, a\-|las, it|fa\- des a\-|way.|||
 z6 | z6 |] %44
w: ||
V:2
 B, | G2 z e | [dd'] [ff'] [Dd] [Bb] | [Ee]4 | [DFBd]2 z2 | [EG]B,[EG]B, | [EG]B,[EG]B, | %7
 [EG]2 z2 |"^Echo."!8va(! [gg'][ff'][ee'][ff'] | [fe']2!8va)! z2 | [DFA]B,[DFA]B, | %11
 [DFA]B,[DFA]B, | [EG]B,[EG] z |"^Echo."!8va(! [gg'][ff'][ee'][ff'] | [fe']2!8va)! z2 | %15
 [EA]C[EA]C | [EA]C[EA]C | [EG]B,[EG]B, | [EG]B,[EG]B, | [CE]=A,[CE]A, | [B,E]G,[A,D]F, | %21
 [B,E]2 z2 |"^Echo." [FA]B,[FA]B, | [B,EG]2 z2 |][K:E][M:3/4] [EG]B,[EG]B,[EG]B, | %25
 [EG]B,[EG]B,[EG]B, | [B,E]G,[B,E]G,[B,E]G, | [B,E]G,[B,E]G,[EG]B, | [GB]E[GB]E[EG]B, | %29
 [EG]B,[EG]B,[EG]B, | [CF]A,[CF]A,[B,D]A, | [G,E]6 | [EG]B,[EG]B,[EG]B, | [FA]B,[FA]B,[FA]B, | %34
 [FA]B,[FA]B,[FA]B, | [EG] z z2 z [EGB] | [EGBe]2 z2 z [B,DFA] | [B,DFA]2 z2 z [B,DFA] | %38
 [CFA]2 A,2 [B,D]2 | [G,E]4 z [ee'] |"^Echo." [ee']2 z2 z [Bb] | [Bb]2 z2 z [Bb] | %42
!8va(! [aa']2 [cc']2 [dd']2 | [egbe']6!8va)! |] %44
V:3
 z | [E,,E,]G,[CE]B, | [B,,,B,,] D [F,A,B,] D | [E,,E,]4 | [B,,,B,,]2 z2 | [E,,E,]2 z2 | %6
 [E,,E,]2 z2 | [E,,E,]2 z2 | [E,,E,]B,[EG]B, | [EG]B,[EG] z | [B,,,D,]2 z2 | [B,,,D,]2 z2 | %12
 [E,,E,]2 z2 | [E,,E,]B,[EG]B, | [EG]B,[EG] z | [A,,A,]2 z2 | [A,,A,]2 z2 | [E,,E,]2 z2 | %18
 [E,,E,]2 z2 | [F,,F,]2 z2 | [E,,E,]2 [B,,,B,,]2 | [E,,E,]2 z2 | [B,,,B,,][B,,,B,,][C,,C,][D,,D,] | %23
 [E,,E,]2 z2 |][K:E][M:3/4] [E,,E,]4 [E,,E,]2 | [E,,E,]4 [E,,E,]2 | [E,,E,]4 [E,,E,]2 | %27
 [E,,E,]4 [E,,E,]2 | [E,,E,]4 [E,,E,]2 | [E,,E,]4 [E,,E,]2 | [A,,,A,,]4 [B,,,B,,]2 | [E,,E,]6 | %32
 [E,,E,]6 | [B,,,B,,]6 | [B,,,B,,]6 | [E,,E,] z z2 z [E,,E,] | [E,,E,]6 | %37
"_https://imslp.org/wiki/I_Dreamed_a_Dream_of_Boyhood%27s_Days_(Anonymous) \n                                                              editor Boston: Oliver Ditson, 184\n                                                              First edition 1845 Lyricist J.M.C.\n" [B,,,B,,]6 | %38
 [F,,F,]4 B,,2 | [E,,E,]6 | [E,,E,]2 [EG]2 [EG]2 | [E,,E,]2 [EG]2 [EG]2 | %42
 [F,,F,]2 [C,F,A,]2 [B,,D,F,A,]2 | [E,,G,,B,,E,]6 |] %44

